images/Vector.svg

<svg width="18" height="12" viewBox="0 0 18 12" fill="none" xmlns="http://www.w3.org/2000/svg">
<path d="M1.77778 0C1.39027 0 1.03451 0.124442 0.743067 0.333333L0.749956 0.340264L8.52773 7.64582C8.69969 7.80726 9.07802 7.80726 9.24996 7.64582L17.0277 0.340264L17.0346 0.333333C16.7432 0.124442 16.3874 0 15.9999 0H1.77769H1.77778ZM0.1736 1.01389C0.0636888 1.24536 0 1.50358 0 1.77778V10.2222C0 10.5569 0.0973777 10.8652 0.256933 11.1319L5.75693 6.26389L0.1736 1.01389ZM17.6042 1.01389L12.0208 6.26389L17.5208 11.1319C17.6804 10.8652 17.7778 10.5569 17.7778 10.2222V1.77778C17.7778 1.50358 17.7141 1.24536 17.6042 1.01389ZM6.40973 6.875L0.888889 11.7569C1.15089 11.9087 1.45204 12 1.77778 12H16C16.3257 12 16.6269 11.9087 16.8889 11.7569L11.368 6.875L9.86111 8.29167C9.31722 8.80236 8.46053 8.80233 7.91667 8.29167L6.40973 6.875Z" fill="white"/>
</svg>

<svg width="18" height="12" fill="none" xmlns="http://www.w3.org/2000/svg"><path d="M1.778 0C1.39 0 1.035.124.743.333L.75.34l7.778 7.306c.172.161.55.161.722 0L17.028.34l.007-.007A1.768 1.768 0 0016 0H1.778zM.174 1.014c-.11.231-.174.49-.174.764v8.444c0 .335.097.643.257.91l5.5-4.868-5.583-5.25zm17.43 0l-5.583 5.25 5.5 4.868a1.76 1.76 0 00.257-.91V1.778c0-.274-.064-.533-.174-.764zM6.41 6.875L.889 11.757c.262.152.563.243.889.243H16c.326 0 .627-.091.889-.243l-5.521-4.882-1.507 1.417c-.544.51-1.4.51-1.944 0L6.41 6.875z" fill="#fff"/></svg>
